icons/modern/pushpin.svg

<svg width="32" height="32" viewBox="0 0 32 32" fill="none" xmlns="http://www.w3.org/2000/svg">
<path d="M11.5342 12.6263L18.8858 19.9779L25.4092 13.4545L18.0576 6.10291L11.5342 12.6263Z" fill="#D93965"/>
<path d="M11.5342 12.6263L18.8858 19.9779L25.4092 13.4545L18.0576 6.10291L11.5342 12.6263Z" fill="url(#paint0_linear_18_23113)"/>
<path d="M11.5342 12.6263L18.8858 19.9779L25.4092 13.4545L18.0576 6.10291L11.5342 12.6263Z" fill="url(#paint1_linear_18_23113)"/>
<path d="M11.5342 12.6263L18.8858 19.9779L25.4092 13.4545L18.0576 6.10291L11.5342 12.6263Z" fill="url(#paint2_linear_18_23113)"/>
<g filter="url(#filter0_i_18_23113)">
<path d="M18.0204 2.37452C18.6062 1.78873 19.5559 1.78873 20.1417 2.37452L29.1375 11.3704C29.7233 11.9562 29.7233 12.9059 29.1376 13.4917L28.4703 14.159C27.3768 15.2524 25.604 15.2524 24.5105 14.159L17.3531 7.00158C16.2597 5.90811 16.2597 4.13525 17.3531 3.04178L18.0204 2.37452Z" fill="url(#paint3_linear_18_23113)"/>
<path d="M18.0204 2.37452C18.6062 1.78873 19.5559 1.78873 20.1417 2.37452L29.1375 11.3704C29.7233 11.9562 29.7233 12.9059 29.1376 13.4917L28.4703 14.159C27.3768 15.2524 25.604 15.2524 24.5105 14.159L17.3531 7.00158C16.2597 5.90811 16.2597 4.13525 17.3531 3.04178L18.0204 2.37452Z" fill="url(#paint4_radial_18_23113)"/>
</g>
<path d="M13.2959 16.3802C13.8029 15.8733 14.6248 15.8733 15.1318 16.3802C15.6388 16.8872 15.6388 17.7092 15.1318 18.2162L4.16305 29.1849C3.65608 29.6919 2.83411 29.6919 2.32713 29.1849C1.82016 28.6779 1.82016 27.856 2.32713 27.349L13.2959 16.3802Z" fill="url(#paint5_linear_18_23113)"/>
<path d="M13.2959 16.3802C13.8029 15.8733 14.6248 15.8733 15.1318 16.3802C15.6388 16.8872 15.6388 17.7092 15.1318 18.2162L4.16305 29.1849C3.65608 29.6919 2.83411 29.6919 2.32713 29.1849C1.82016 28.6779 1.82016 27.856 2.32713 27.349L13.2959 16.3802Z" fill="url(#paint6_radial_18_23113)"/>
<path d="M13.2959 16.3802C13.8029 15.8733 14.6248 15.8733 15.1318 16.3802C15.6388 16.8872 15.6388 17.7092 15.1318 18.2162L4.16305 29.1849C3.65608 29.6919 2.83411 29.6919 2.32713 29.1849C1.82016 28.6779 1.82016 27.856 2.32713 27.349L13.2959 16.3802Z" fill="url(#paint7_radial_18_23113)"/>
<path d="M13.2959 16.3802C13.8029 15.8733 14.6248 15.8733 15.1318 16.3802C15.6388 16.8872 15.6388 17.7092 15.1318 18.2162L4.16305 29.1849C3.65608 29.6919 2.83411 29.6919 2.32713 29.1849C1.82016 28.6779 1.82016 27.856 2.32713 27.349L13.2959 16.3802Z" fill="url(#paint8_radial_18_23113)"/>
<g filter="url(#filter1_i_18_23113)">
<path d="M6.31811 12.2174C5.67375 12.8618 5.67375 13.9065 6.31811 14.5509L16.9612 25.194C17.6056 25.8383 18.6503 25.8383 19.2947 25.194L19.9714 24.5173C21.5335 22.9552 21.5335 20.4225 19.9714 18.8604L12.6517 11.5407C11.0896 9.97861 8.55693 9.97862 6.99483 11.5407L6.31811 12.2174Z" fill="url(#paint9_linear_18_23113)"/>
<path d="M6.31811 12.2174C5.67375 12.8618 5.67375 13.9065 6.31811 14.5509L16.9612 25.194C17.6056 25.8383 18.6503 25.8383 19.2947 25.194L19.9714 24.5173C21.5335 22.9552 21.5335 20.4225 19.9714 18.8604L12.6517 11.5407C11.0896 9.97861 8.55693 9.97862 6.99483 11.5407L6.31811 12.2174Z" fill="url(#paint10_radial_18_23113)"/>
<path d="M6.31811 12.2174C5.67375 12.8618 5.67375 13.9065 6.31811 14.5509L16.9612 25.194C17.6056 25.8383 18.6503 25.8383 19.2947 25.194L19.9714 24.5173C21.5335 22.9552 21.5335 20.4225 19.9714 18.8604L12.6517 11.5407C11.0896 9.97861 8.55693 9.97862 6.99483 11.5407L6.31811 12.2174Z" fill="url(#paint11_radial_18_23113)"/>
<path d="M6.31811 12.2174C5.67375 12.8618 5.67375 13.9065 6.31811 14.5509L16.9612 25.194C17.6056 25.8383 18.6503 25.8383 19.2947 25.194L19.9714 24.5173C21.5335 22.9552 21.5335 20.4225 19.9714 18.8604L12.6517 11.5407C11.0896 9.97861 8.55693 9.97862 6.99483 11.5407L6.31811 12.2174Z" fill="url(#paint12_radial_18_23113)"/>
</g>
<g filter="url(#filter2_f_18_23113)">
<path d="M3.26721 28.2012L10.0446 21.3983" stroke="url(#paint13_linear_18_23113)" stroke-width="0.65" stroke-linecap="round"/>
</g>
<defs>
<filter id="filter0_i_18_23113" x="16.533" y="0.935181" width="14.0439" height="14.0439" filterUnits="userSpaceOnUse" color-interpolation-filters="sRGB">
<feFlood flood-opacity="0" result="BackgroundImageFix"/>
<feBlend mode="normal" in="SourceGraphic" in2="BackgroundImageFix" result="shape"/>
<feColorMatrix in="SourceAlpha" type="matrix" values="0 0 0 0 0 0 0 0 0 0 0 0 0 0 0 0 0 0 127 0" result="hardAlpha"/>
<feOffset dx="1" dy="-1"/>
<feGaussianBlur stdDeviation="1"/>
<feComposite in2="hardAlpha" operator="arithmetic" k2="-1" k3="1"/>
<feColorMatrix type="matrix" values="0 0 0 0 0.764706 0 0 0 0 0.109804 0 0 0 0 0.301961 0 0 0 1 0"/>
<feBlend mode="normal" in2="shape" result="effect1_innerShadow_18_23113"/>
</filter>
<filter id="filter1_i_18_23113" x="5.83484" y="9.36914" width="16.3081" height="16.3081" filterUnits="userSpaceOnUse" color-interpolation-filters="sRGB">
<feFlood flood-opacity="0" result="BackgroundImageFix"/>
<feBlend mode="normal" in="SourceGraphic" in2="BackgroundImageFix" result="shape"/>
<feColorMatrix in="SourceAlpha" type="matrix" values="0 0 0 0 0 0 0 0 0 0 0 0 0 0 0 0 0 0 127 0" result="hardAlpha"/>
<feOffset dx="1" dy="-1"/>
<feGaussianBlur stdDeviation="1"/>
<feComposite in2="hardAlpha" operator="arithmetic" k2="-1" k3="1"/>
<feColorMatrix type="matrix" values="0 0 0 0 0.827451 0 0 0 0 0.133333 0 0 0 0 0.372549 0 0 0 1 0"/>
<feBlend mode="normal" in2="shape" result="effect1_innerShadow_18_23113"/>
</filter>
<filter id="filter2_f_18_23113" x="2.44221" y="20.5733" width="8.42738" height="8.45294" filterUnits="userSpaceOnUse" color-interpolation-filters="sRGB">
<feFlood flood-opacity="0" result="BackgroundImageFix"/>
<feBlend mode="normal" in="SourceGraphic" in2="BackgroundImageFix" result="shape"/>
<feGaussianBlur stdDeviation="0.25" result="effect1_foregroundBlur_18_23113"/>
</filter>
<linearGradient id="paint0_linear_18_23113" x1="14.7842" y1="9.57947" x2="18.9717" y2="13.9545" gradientUnits="userSpaceOnUse">
<stop stop-color="#A7404E"/>
<stop offset="1" stop-color="#A7404E" stop-opacity="0"/>
</linearGradient>
<linearGradient id="paint1_linear_18_23113" x1="22.3779" y1="17.2982" x2="19.3779" y2="14.4545" gradientUnits="userSpaceOnUse">
<stop stop-color="#9C475F"/>
<stop offset="1" stop-color="#D32A60" stop-opacity="0"/>
</linearGradient>
<linearGradient id="paint2_linear_18_23113" x1="22.5029" y1="11.2357" x2="21.4404" y2="12.3295" gradientUnits="userSpaceOnUse">
<stop offset="0.207895" stop-color="#A72249"/>
<stop offset="1" stop-color="#B14162" stop-opacity="0"/>
</linearGradient>
<linearGradient id="paint3_linear_18_23113" x1="16.533" y1="3.142" x2="28.2217" y2="14.3295" gradientUnits="userSpaceOnUse">
<stop stop-color="#E52C70"/>
<stop offset="1" stop-color="#FC3154"/>
</linearGradient>
<radialGradient id="paint4_radial_18_23113" cx="0" cy="0" r="1" gradientUnits="userSpaceOnUse" gradientTransform="translate(25.5029 8.892) rotate(136.081) scale(1.17135 7.48692)">
<stop stop-color="#FF688C"/>
<stop offset="1" stop-color="#FF688C" stop-opacity="0"/>
</radialGradient>
<linearGradient id="paint5_linear_18_23113" x1="5.50934" y1="24.0226" x2="7.64957" y2="25.9081" gradientUnits="userSpaceOnUse">
<stop stop-color="#9D9798"/>
<stop offset="0.866901" stop-color="#9B8EA4"/>
</linearGradient>
<radialGradient id="paint6_radial_18_23113" cx="0" cy="0" r="1" gradientUnits="userSpaceOnUse" gradientTransform="translate(11.1657 18.672) rotate(134.341) scale(9.40514 2.24299)">
<stop stop-color="#8C6E76"/>
<stop offset="1" stop-color="#8C6E76" stop-opacity="0"/>
</radialGradient>
<radialGradient id="paint7_radial_18_23113" cx="0" cy="0" r="1" gradientUnits="userSpaceOnUse" gradientTransform="translate(12.6434 21.0161) rotate(135) scale(9.87294 2.16196)">
<stop offset="0.156934" stop-color="#7C547B"/>
<stop offset="1" stop-color="#7C547B" stop-opacity="0"/>
</radialGradient>
<radialGradient id="paint8_radial_18_23113" cx="0" cy="0" r="1" gradientUnits="userSpaceOnUse" gradientTransform="translate(6.98712 17.551) rotate(107.204) scale(12.5769 6.44157)">
<stop offset="0.89925" stop-color="#826F91" stop-opacity="0"/>
<stop offset="1" stop-color="#826F91"/>
</radialGradient>
<linearGradient id="paint9_linear_18_23113" x1="9.97168" y1="11.267" x2="20.5967" y2="23.9545" gradientUnits="userSpaceOnUse">
<stop stop-color="#E72F7B"/>
<stop offset="1" stop-color="#F63352"/>
</linearGradient>
<radialGradient id="paint10_radial_18_23113" cx="0" cy="0" r="1" gradientUnits="userSpaceOnUse" gradientTransform="translate(16.2217 17.5795) rotate(131.424) scale(2.83395 7.45916)">
<stop offset="0.150778" stop-color="#FF678C"/>
<stop offset="1" stop-color="#FF678C" stop-opacity="0"/>
</radialGradient>
<radialGradient id="paint11_radial_18_23113" cx="0" cy="0" r="1" gradientUnits="userSpaceOnUse" gradientTransform="translate(9.78418 19.4545) rotate(10.1981) scale(12.0021 18.4941)">
<stop offset="0.717453" stop-color="#FF6773" stop-opacity="0"/>
<stop offset="1" stop-color="#FF6773"/>
</radialGradient>
<radialGradient id="paint12_radial_18_23113" cx="0" cy="0" r="1" gradientUnits="userSpaceOnUse" gradientTransform="translate(16.8729 21.2709) rotate(-133.794) scale(13.6954 13.6954)">
<stop offset="0.816438" stop-color="#C95179" stop-opacity="0"/>
<stop offset="1" stop-color="#C95179"/>
</radialGradient>
<linearGradient id="paint13_linear_18_23113" x1="3.26721" y1="28.405" x2="10.1975" y2="21.6531" gradientUnits="userSpaceOnUse">
<stop stop-color="#A9A1AC"/>
<stop offset="1" stop-color="#A9A1AC" stop-opacity="0"/>
</linearGradient>
</defs>
</svg>

<svg width="32" height="32" fill="none" xmlns="http://www.w3.org/2000/svg"><path d="m11.534 12.626 7.352 7.352 6.523-6.524-7.351-7.351-6.524 6.523Z" fill="#D93965"/><path d="m11.534 12.626 7.352 7.352 6.523-6.524-7.351-7.351-6.524 6.523Z" fill="url(#a)"/><path d="m11.534 12.626 7.352 7.352 6.523-6.524-7.351-7.351-6.524 6.523Z" fill="url(#b)"/><path d="m11.534 12.626 7.352 7.352 6.523-6.524-7.351-7.351-6.524 6.523Z" fill="url(#c)"/><g filter="url(#d)"><path d="M18.02 2.375a1.5 1.5 0 0 1 2.122 0l8.995 8.995a1.5 1.5 0 0 1 0 2.122l-.667.667a2.8 2.8 0 0 1-3.96 0l-7.157-7.157a2.8 2.8 0 0 1 0-3.96l.667-.667Z" fill="url(#e)"/><path d="M18.02 2.375a1.5 1.5 0 0 1 2.122 0l8.995 8.995a1.5 1.5 0 0 1 0 2.122l-.667.667a2.8 2.8 0 0 1-3.96 0l-7.157-7.157a2.8 2.8 0 0 1 0-3.96l.667-.667Z" fill="url(#f)"/></g><path d="M13.296 16.38a1.298 1.298 0 0 1 1.836 1.836L4.163 29.185a1.298 1.298 0 1 1-1.836-1.836L13.296 16.38Z" fill="url(#g)"/><path d="M13.296 16.38a1.298 1.298 0 0 1 1.836 1.836L4.163 29.185a1.298 1.298 0 1 1-1.836-1.836L13.296 16.38Z" fill="url(#h)"/><path d="M13.296 16.38a1.298 1.298 0 0 1 1.836 1.836L4.163 29.185a1.298 1.298 0 1 1-1.836-1.836L13.296 16.38Z" fill="url(#i)"/><path d="M13.296 16.38a1.298 1.298 0 0 1 1.836 1.836L4.163 29.185a1.298 1.298 0 1 1-1.836-1.836L13.296 16.38Z" fill="url(#j)"/><g filter="url(#k)"><path d="M6.318 12.217a1.65 1.65 0 0 0 0 2.334l10.643 10.643a1.65 1.65 0 0 0 2.334 0l.676-.677a4 4 0 0 0 0-5.657l-7.32-7.32a4 4 0 0 0-5.656 0l-.677.677Z" fill="url(#l)"/><path d="M6.318 12.217a1.65 1.65 0 0 0 0 2.334l10.643 10.643a1.65 1.65 0 0 0 2.334 0l.676-.677a4 4 0 0 0 0-5.657l-7.32-7.32a4 4 0 0 0-5.656 0l-.677.677Z" fill="url(#m)"/><path d="M6.318 12.217a1.65 1.65 0 0 0 0 2.334l10.643 10.643a1.65 1.65 0 0 0 2.334 0l.676-.677a4 4 0 0 0 0-5.657l-7.32-7.32a4 4 0 0 0-5.656 0l-.677.677Z" fill="url(#n)"/><path d="M6.318 12.217a1.65 1.65 0 0 0 0 2.334l10.643 10.643a1.65 1.65 0 0 0 2.334 0l.676-.677a4 4 0 0 0 0-5.657l-7.32-7.32a4 4 0 0 0-5.656 0l-.677.677Z" fill="url(#o)"/></g><g filter="url(#p)"><path d="m3.267 28.201 6.778-6.803" stroke="url(#q)" stroke-width=".65" stroke-linecap="round"/></g><defs><radialGradient id="f" cx="0" cy="0" r="1" gradientUnits="userSpaceOnUse" gradientTransform="rotate(136.081 10.959 9.587) scale(1.17135 7.48692)"><stop stop-color="#FF688C"/><stop offset="1" stop-color="#FF688C" stop-opacity="0"/></radialGradient><radialGradient id="h" cx="0" cy="0" r="1" gradientUnits="userSpaceOnUse" gradientTransform="matrix(-6.5735 6.72649 -1.60417 -1.56769 11.166 18.672)"><stop stop-color="#8C6E76"/><stop offset="1" stop-color="#8C6E76" stop-opacity="0"/></radialGradient><radialGradient id="i" cx="0" cy="0" r="1" gradientUnits="userSpaceOnUse" gradientTransform="matrix(-6.98122 6.98122 -1.52874 -1.52874 12.643 21.016)"><stop offset=".157" stop-color="#7C547B"/><stop offset="1" stop-color="#7C547B" stop-opacity="0"/></radialGradient><radialGradient id="j" cx="0" cy="0" r="1" gradientUnits="userSpaceOnUse" gradientTransform="matrix(-3.71993 12.01418 -6.15336 -1.90525 6.987 17.551)"><stop offset=".899" stop-color="#826F91" stop-opacity="0"/><stop offset="1" stop-color="#826F91"/></radialGradient><radialGradient id="m" cx="0" cy="0" r="1" gradientUnits="userSpaceOnUse" gradientTransform="rotate(131.424 4.144 12.45) scale(2.83395 7.45916)"><stop offset=".151" stop-color="#FF678C"/><stop offset="1" stop-color="#FF678C" stop-opacity="0"/></radialGradient><radialGradient id="n" cx="0" cy="0" r="1" gradientUnits="userSpaceOnUse" gradientTransform="matrix(11.81248 2.125 -3.27442 18.20192 9.784 19.454)"><stop offset=".717" stop-color="#FF6773" stop-opacity="0"/><stop offset="1" stop-color="#FF6773"/></radialGradient><radialGradient id="o" cx="0" cy="0" r="1" gradientUnits="userSpaceOnUse" gradientTransform="rotate(-133.794 12.974 7.036) scale(13.6954)"><stop offset=".816" stop-color="#C95179" stop-opacity="0"/><stop offset="1" stop-color="#C95179"/></radialGradient><linearGradient id="a" x1="14.784" y1="9.579" x2="18.972" y2="13.954" gradientUnits="userSpaceOnUse"><stop stop-color="#A7404E"/><stop offset="1" stop-color="#A7404E" stop-opacity="0"/></linearGradient><linearGradient id="b" x1="22.378" y1="17.298" x2="19.378" y2="14.454" gradientUnits="userSpaceOnUse"><stop stop-color="#9C475F"/><stop offset="1" stop-color="#D32A60" stop-opacity="0"/></linearGradient><linearGradient id="c" x1="22.503" y1="11.236" x2="21.44" y2="12.329" gradientUnits="userSpaceOnUse"><stop offset=".208" stop-color="#A72249"/><stop offset="1" stop-color="#B14162" stop-opacity="0"/></linearGradient><linearGradient id="e" x1="16.533" y1="3.142" x2="28.222" y2="14.329" gradientUnits="userSpaceOnUse"><stop stop-color="#E52C70"/><stop offset="1" stop-color="#FC3154"/></linearGradient><linearGradient id="g" x1="5.509" y1="24.023" x2="7.65" y2="25.908" gradientUnits="userSpaceOnUse"><stop stop-color="#9D9798"/><stop offset=".867" stop-color="#9B8EA4"/></linearGradient><linearGradient id="l" x1="9.972" y1="11.267" x2="20.597" y2="23.954" gradientUnits="userSpaceOnUse"><stop stop-color="#E72F7B"/><stop offset="1" stop-color="#F63352"/></linearGradient><linearGradient id="q" x1="3.267" y1="28.405" x2="10.197" y2="21.653" gradientUnits="userSpaceOnUse"><stop stop-color="#A9A1AC"/><stop offset="1" stop-color="#A9A1AC" stop-opacity="0"/></linearGradient><filter id="d" x="16.533" y=".935" width="14.044" height="14.044" filterUnits="userSpaceOnUse" color-interpolation-filters="sRGB"><feFlood flood-opacity="0" result="BackgroundImageFix"/><feBlend in="SourceGraphic" in2="BackgroundImageFix" result="shape"/><feColorMatrix in="SourceAlpha" values="0 0 0 0 0 0 0 0 0 0 0 0 0 0 0 0 0 0 127 0" result="hardAlpha"/><feOffset dx="1" dy="-1"/><feGaussianBlur stdDeviation="1"/><feComposite in2="hardAlpha" operator="arithmetic" k2="-1" k3="1"/><feColorMatrix values="0 0 0 0 0.764706 0 0 0 0 0.109804 0 0 0 0 0.301961 0 0 0 1 0"/><feBlend in2="shape" result="effect1_innerShadow_18_23113"/></filter><filter id="k" x="5.835" y="9.369" width="16.308" height="16.308" filterUnits="userSpaceOnUse" color-interpolation-filters="sRGB"><feFlood flood-opacity="0" result="BackgroundImageFix"/><feBlend in="SourceGraphic" in2="BackgroundImageFix" result="shape"/><feColorMatrix in="SourceAlpha" values="0 0 0 0 0 0 0 0 0 0 0 0 0 0 0 0 0 0 127 0" result="hardAlpha"/><feOffset dx="1" dy="-1"/><feGaussianBlur stdDeviation="1"/><feComposite in2="hardAlpha" operator="arithmetic" k2="-1" k3="1"/><feColorMatrix values="0 0 0 0 0.827451 0 0 0 0 0.133333 0 0 0 0 0.372549 0 0 0 1 0"/><feBlend in2="shape" result="effect1_innerShadow_18_23113"/></filter><filter id="p" x="2.442" y="20.573" width="8.427" height="8.453" filterUnits="userSpaceOnUse" color-interpolation-filters="sRGB"><feFlood flood-opacity="0" result="BackgroundImageFix"/><feBlend in="SourceGraphic" in2="BackgroundImageFix" result="shape"/><feGaussianBlur stdDeviation=".25" result="effect1_foregroundBlur_18_23113"/></filter></defs></svg>
